X:899
M:C|
L:1/8
K:D Minor
d>edA d/d/d f2|g>fed cdec|d>edA d/d/d f2|ed^ce d2D2|dedA d/d/d f2|
gfed cdec|decd ABcA|GEcE D/D/D D2||

